propusk-quiz/img/icons/about-card-icon-01.svg

<svg width="30" height="28" fill="none" xmlns="http://www.w3.org/2000/svg"><path d="M27 6.5h-6v-3l-3-3h-6l-3 3v3H3c-1.65 0-3 1.35-3 3V17c0 1.125.6 2.07 1.5 2.595V24.5c0 1.665 1.335 3 3 3h21c1.665 0 3-1.335 3-3v-4.92c.885-.525 1.5-1.485 1.5-2.58V9.5c0-1.65-1.35-3-3-3zm-15-3h6v3h-6v-3zm-9 6h24V17h-7.5v-4.5h-9V17H3V9.5zm13.5 9h-3v-3h3v3zm9 6h-21V20h6v1.5h9V20h6v4.5z" fill="#000"/></svg>

<svg width="30" height="28" viewBox="0 0 30 28" fill="none" xmlns="http://www.w3.org/2000/svg">
<path d="M27 6.5H21V3.5L18 0.5H12L9 3.5V6.5H3C1.35 6.5 0 7.85 0 9.5V17C0 18.125 0.6 19.07 1.5 19.595V24.5C1.5 26.165 2.835 27.5 4.5 27.5H25.5C27.165 27.5 28.5 26.165 28.5 24.5V19.58C29.385 19.055 30 18.095 30 17V9.5C30 7.85 28.65 6.5 27 6.5ZM12 3.5H18V6.5H12V3.5ZM3 9.5H27V17H19.5V12.5H10.5V17H3V9.5ZM16.5 18.5H13.5V15.5H16.5V18.5ZM25.5 24.5H4.5V20H10.5V21.5H19.5V20H25.5V24.5Z" fill="black"/>
</svg>
